!!!OTL: 392. Naehe des Geliebten.
!!!COM: L. v. Beethoven
!!!ODT: 1800
!!!ARE: Europa, Mitteleuropa, Deutschland
!!!SCT: B0392
!!!TXL: @@DE
!!!YEM: Copyright 1995, estate of Helmut Schaffrath.
**kern	**text
*ICvox	*
*Ivox	*
*clefG2	*
*M4/4	*
*met(c)	*
*k[]	*
*C:	*
!LO:TX:a:t=Mäßig langſam.	!
{4g	Jch
=1	=1
(2cc	den-
4.ee)	.
8dd	-ke
=2	=2
(4dd	dein,
4cc)	.
4r}	.
{8ccL	wenn
8bJ	.
=3	=3
8bL	mir
8aJ	.
8g#L	der
8aJ	.
8bL	Son-
8ccJ	.
8dd#L	-ne
8eeJ	.
=4	=4
4ee	Schim-
2ddn}	-mer
{8cc/L	vom
8aJ	.
=5	=5
(<2gSS	Mee-
4.b/)	.
8a	-re
=6	=6
2g	ſtrahlt
4r}	.
{4g	ich
=7	=7
2.ff	den-
8eeL	-ke
8ddJ	.
=8	=8
(4cc	dein,
2b)}	.
{4cc	wenn
=9	=9
4dd	ſich
4b/	des
4g	Mon-
4f	-des
=10	=10
2e	Flim-
4d}	-mer
{8fL	in
8aJ	.
=11	=11
(4g	Quel-
2c)	.
8eL	-len
8dJ	.
=12	=12
2c	malt.
4r}	.
==	==
!!!AGN: Liebes - Lied, Liebes - Lust
!!!GTL: Liebeslieder - Liebeslust
!!!ONB: ESAC (Essen Associative Code) Database: BOEHME
!!!AMT: simple quadruple
!!!AIN: vox
!!!EED: Helmut Schaffrath
!!!EEV: 1.0
!!!RDF**kern: < = below
!!@@COMMENT:"W. v. Goethe. 1795. Gedruckt zuerst in Schiller's "Musenalmanach" 1796. S. 5. [...] Beethoven's 
!!Melodie enstand 1800- Er schrieb sie in Stammbuch der Gräfinnen Josephine Dezn und Therese Brunswick 
!!(S. Thayer, "Chronolog. Verzeichniß der Werke Beethoven's", Berlin 1865, S. 38)"
!!@@END:
!!!Text: J. W. Goethe
!!!URL-scan: https://archive.org/details/BoehmeVtLieder1895/page/n325/mode/2up
!!!ENC: Anna Maria Matuszewska
!!!EEV: 2024/08/07
*-	*-
